Catalina-dark/status/16/btsync-gui-1.svg

<?xml version="1.0" encoding="UTF-8" standalone="no"?>
<svg
   xmlns:dc="http://purl.org/dc/elements/1.1/"
   xmlns:cc="http://creativecommons.org/ns#"
   xmlns:rdf="http://www.w3.org/1999/02/22-rdf-syntax-ns#"
   xmlns:svg="http://www.w3.org/2000/svg"
   xmlns="http://www.w3.org/2000/svg"
   xmlns:xlink="http://www.w3.org/1999/xlink"
   xmlns:sodipodi="http://sodipodi.sourceforge.net/DTD/sodipodi-0.dtd"
   xmlns:inkscape="http://www.inkscape.org/namespaces/inkscape"
   width="16"
   height="16"
   viewBox="0 0 12 12"
   version="1.1"
   id="svg5"
   sodipodi:docname="btsync-gui-1.svg"
   inkscape:version="0.92.3 (2405546, 2018-03-11)">
  <metadata
     id="metadata11">
    <rdf:RDF>
      <cc:Work
         rdf:about="">
        <dc:format>image/svg+xml</dc:format>
        <dc:type
           rdf:resource="http://purl.org/dc/dcmitype/StillImage" />
        <dc:title></dc:title>
      </cc:Work>
    </rdf:RDF>
  </metadata>
  <defs
     id="defs9">
    <filter
       style="color-interpolation-filters:sRGB"
       id="filter7554">
      <feBlend
         mode="darken"
         in2="BackgroundImage"
         id="feBlend7556" />
    </filter>
    <filter
       id="filter7554-5"
       style="color-interpolation-filters:sRGB">
      <feBlend
         id="feBlend7556-4"
         in2="BackgroundImage"
         mode="darken" />
    </filter>
    <filter
       style="color-interpolation-filters:sRGB"
       id="filter7554-6">
      <feBlend
         id="feBlend7556-6"
         in2="BackgroundImage"
         mode="darken" />
    </filter>
    <linearGradient
       gradientTransform="translate(-1,-2)"
       gradientUnits="userSpaceOnUse"
       xlink:href="#linearGradient3678"
       id="linearGradient2868"
       y2="19"
       x2="8.9254236"
       y1="5.9997859"
       x1="8.9254236" />
    <linearGradient
       id="linearGradient3678">
      <stop
         offset="0"
         style="stop-color:#ffffff;stop-opacity:1"
         id="stop3680" />
      <stop
         offset="1"
         style="stop-color:#e6e6e6;stop-opacity:1"
         id="stop3682" />
    </linearGradient>
    <linearGradient
       gradientTransform="translate(-2,-1)"
       gradientUnits="userSpaceOnUse"
       xlink:href="#linearGradient3678"
       id="linearGradient2393"
       y2="21"
       x2="9"
       y1="3"
       x1="9" />
    <linearGradient
       x1="14"
       y1="3"
       x2="14"
       y2="21"
       id="linearGradient2398"
       xlink:href="#linearGradient3587-6-5-3"
       gradientUnits="userSpaceOnUse"
       gradientTransform="translate(-1.0001235,-5)" />
    <linearGradient
       id="linearGradient3587-6-5-3">
      <stop
         id="stop3589-9-2-0"
         style="stop-color:#000000;stop-opacity:1"
         offset="0" />
      <stop
         id="stop3591-7-4-7"
         style="stop-color:#363636;stop-opacity:1"
         offset="1" />
    </linearGradient>
    <linearGradient
       x1="66.09668"
       y1="9.3638258"
       x2="66.09668"
       y2="27.363825"
       id="linearGradient2395"
       xlink:href="#linearGradient3587-6-5-3"
       gradientUnits="userSpaceOnUse"
       gradientTransform="translate(-52.096803,-11.363826)" />
    <linearGradient
       x1="4.9554448"
       y1="2.6841583"
       x2="4.9554448"
       y2="13.496136"
       id="linearGradient7390"
       xlink:href="#linearGradient3587-6-5-3"
       gradientUnits="userSpaceOnUse" />
    <linearGradient
       x1="7.9109159"
       y1="4.5762329"
       x2="7.9109159"
       y2="11.649005"
       id="linearGradient7392"
       xlink:href="#linearGradient3587-6-5-3"
       gradientUnits="userSpaceOnUse" />
    <linearGradient
       x1="10.186814"
       y1="2.7742527"
       x2="10.186814"
       y2="13.317288"
       id="linearGradient7394"
       xlink:href="#linearGradient3587-6-5-3"
       gradientUnits="userSpaceOnUse" />
    <linearGradient
       x1="13.917011"
       y1="0.88217813"
       x2="13.917011"
       y2="15.183488"
       id="linearGradient7396"
       xlink:href="#linearGradient3587-6-5-3"
       gradientUnits="userSpaceOnUse" />
    <linearGradient
       id="linearGradient5263">
      <stop
         id="stop5265"
         style="stop-color:#a0d5ff;stop-opacity:1"
         offset="0" />
      <stop
         id="stop5267"
         style="stop-color:#a0d5ff;stop-opacity:1"
         offset="1" />
    </linearGradient>
    <filter
       id="filter7554-7"
       style="color-interpolation-filters:sRGB">
      <feBlend
         id="feBlend7556-0"
         in2="BackgroundImage"
         mode="darken" />
    </filter>
    <filter
       id="filter7554-35"
       style="color-interpolation-filters:sRGB">
      <feBlend
         id="feBlend7556-35"
         in2="BackgroundImage"
         mode="darken" />
    </filter>
    <filter
       style="color-interpolation-filters:sRGB"
       id="filter7554-5-9">
      <feBlend
         mode="darken"
         in2="BackgroundImage"
         id="feBlend7556-4-5" />
    </filter>
    <filter
       id="filter7554-6-3"
       style="color-interpolation-filters:sRGB">
      <feBlend
         mode="darken"
         in2="BackgroundImage"
         id="feBlend7556-6-2" />
    </filter>
    <filter
       style="color-interpolation-filters:sRGB"
       id="filter7554-2">
      <feBlend
         mode="darken"
         in2="BackgroundImage"
         id="feBlend7556-9" />
    </filter>
    <filter
       style="color-interpolation-filters:sRGB"
       id="filter7554-29">
      <feBlend
         mode="darken"
         in2="BackgroundImage"
         id="feBlend7556-3" />
    </filter>
    <filter
       style="color-interpolation-filters:sRGB"
       id="filter7554-0">
      <feBlend
         mode="darken"
         in2="BackgroundImage"
         id="feBlend7556-5" />
    </filter>
    <filter
       style="color-interpolation-filters:sRGB"
       id="filter7554-3">
      <feBlend
         mode="darken"
         in2="BackgroundImage"
         id="feBlend7556-48" />
    </filter>
    <filter
       id="filter7554-5-3"
       style="color-interpolation-filters:sRGB">
      <feBlend
         id="feBlend7556-4-4"
         in2="BackgroundImage"
         mode="darken" />
    </filter>
    <filter
       style="color-interpolation-filters:sRGB"
       id="filter7554-6-8">
      <feBlend
         id="feBlend7556-6-4"
         in2="BackgroundImage"
         mode="darken" />
    </filter>
    <filter
       id="filter7554-7-7"
       style="color-interpolation-filters:sRGB">
      <feBlend
         id="feBlend7556-0-2"
         in2="BackgroundImage"
         mode="darken" />
    </filter>
    <filter
       id="filter7554-61"
       style="color-interpolation-filters:sRGB">
      <feBlend
         id="feBlend7556-98"
         in2="BackgroundImage"
         mode="darken" />
    </filter>
    <filter
       style="color-interpolation-filters:sRGB"
       id="filter7554-5-8">
      <feBlend
         mode="darken"
         in2="BackgroundImage"
         id="feBlend7556-4-6" />
    </filter>
    <filter
       id="filter7554-6-84"
       style="color-interpolation-filters:sRGB">
      <feBlend
         mode="darken"
         in2="BackgroundImage"
         id="feBlend7556-6-1" />
    </filter>
    <filter
       style="color-interpolation-filters:sRGB"
       id="filter7554-7-71">
      <feBlend
         mode="darken"
         in2="BackgroundImage"
         id="feBlend7556-0-3" />
    </filter>
    <filter
       style="color-interpolation-filters:sRGB"
       id="filter7554-35-2">
      <feBlend
         mode="darken"
         in2="BackgroundImage"
         id="feBlend7556-35-1" />
    </filter>
    <filter
       id="filter7554-5-9-1"
       style="color-interpolation-filters:sRGB">
      <feBlend
         id="feBlend7556-4-5-9"
         in2="BackgroundImage"
         mode="darken" />
    </filter>
    <filter
       style="color-interpolation-filters:sRGB"
       id="filter7554-6-3-8">
      <feBlend
         id="feBlend7556-6-2-4"
         in2="BackgroundImage"
         mode="darken" />
    </filter>
    <filter
       id="filter7554-2-7"
       style="color-interpolation-filters:sRGB">
      <feBlend
         id="feBlend7556-9-4"
         in2="BackgroundImage"
         mode="darken" />
    </filter>
    <filter
       id="filter7554-29-9"
       style="color-interpolation-filters:sRGB">
      <feBlend
         id="feBlend7556-3-2"
         in2="BackgroundImage"
         mode="darken" />
    </filter>
    <filter
       id="filter7554-0-9"
       style="color-interpolation-filters:sRGB">
      <feBlend
         id="feBlend7556-5-0"
         in2="BackgroundImage"
         mode="darken" />
    </filter>
    <filter
       id="filter7554-3-6"
       style="color-interpolation-filters:sRGB">
      <feBlend
         id="feBlend7556-48-5"
         in2="BackgroundImage"
         mode="darken" />
    </filter>
    <filter
       style="color-interpolation-filters:sRGB"
       id="filter7554-5-3-1">
      <feBlend
         mode="darken"
         in2="BackgroundImage"
         id="feBlend7556-4-4-5" />
    </filter>
    <filter
       id="filter7554-6-8-6"
       style="color-interpolation-filters:sRGB">
      <feBlend
         mode="darken"
         in2="BackgroundImage"
         id="feBlend7556-6-4-2" />
    </filter>
    <filter
       style="color-interpolation-filters:sRGB"
       id="filter7554-7-7-1">
      <feBlend
         mode="darken"
         in2="BackgroundImage"
         id="feBlend7556-0-2-4" />
    </filter>
    <filter
       id="filter7554-22"
       style="color-interpolation-filters:sRGB">
      <feBlend
         id="feBlend7556-01"
         in2="BackgroundImage"
         mode="darken" />
    </filter>
    <filter
       style="color-interpolation-filters:sRGB"
       id="filter7554-5-6">
      <feBlend
         mode="darken"
         in2="BackgroundImage"
         id="feBlend7556-4-2" />
    </filter>
    <filter
       id="filter7554-6-6"
       style="color-interpolation-filters:sRGB">
      <feBlend
         mode="darken"
         in2="BackgroundImage"
         id="feBlend7556-6-16" />
    </filter>
    <filter
       style="color-interpolation-filters:sRGB"
       id="filter7554-7-6">
      <feBlend
         mode="darken"
         in2="BackgroundImage"
         id="feBlend7556-0-1" />
    </filter>
    <filter
       style="color-interpolation-filters:sRGB"
       id="filter7554-35-9">
      <feBlend
         mode="darken"
         in2="BackgroundImage"
         id="feBlend7556-35-4" />
    </filter>
    <filter
       id="filter7554-5-9-0"
       style="color-interpolation-filters:sRGB">
      <feBlend
         id="feBlend7556-4-5-1"
         in2="BackgroundImage"
         mode="darken" />
    </filter>
    <filter
       style="color-interpolation-filters:sRGB"
       id="filter7554-6-3-7">
      <feBlend
         id="feBlend7556-6-2-3"
         in2="BackgroundImage"
         mode="darken" />
    </filter>
    <filter
       id="filter7554-2-0"
       style="color-interpolation-filters:sRGB">
      <feBlend
         id="feBlend7556-9-3"
         in2="BackgroundImage"
         mode="darken" />
    </filter>
    <filter
       id="filter7554-29-5"
       style="color-interpolation-filters:sRGB">
      <feBlend
         id="feBlend7556-3-0"
         in2="BackgroundImage"
         mode="darken" />
    </filter>
    <filter
       id="filter7554-0-4"
       style="color-interpolation-filters:sRGB">
      <feBlend
         id="feBlend7556-5-6"
         in2="BackgroundImage"
         mode="darken" />
    </filter>
    <filter
       id="filter7554-3-8"
       style="color-interpolation-filters:sRGB">
      <feBlend
         id="feBlend7556-48-4"
         in2="BackgroundImage"
         mode="darken" />
    </filter>
    <filter
       style="color-interpolation-filters:sRGB"
       id="filter7554-5-3-0">
      <feBlend
         mode="darken"
         in2="BackgroundImage"
         id="feBlend7556-4-4-0" />
    </filter>
    <filter
       id="filter7554-6-8-64"
       style="color-interpolation-filters:sRGB">
      <feBlend
         mode="darken"
         in2="BackgroundImage"
         id="feBlend7556-6-4-9" />
    </filter>
    <filter
       style="color-interpolation-filters:sRGB"
       id="filter7554-7-7-9">
      <feBlend
         mode="darken"
         in2="BackgroundImage"
         id="feBlend7556-0-2-0" />
    </filter>
  </defs>
  <sodipodi:namedview
     pagecolor="#ffffff"
     bordercolor="#666666"
     borderopacity="1"
     objecttolerance="10"
     gridtolerance="10"
     guidetolerance="10"
     inkscape:pageopacity="0"
     inkscape:pageshadow="2"
     inkscape:window-width="1920"
     inkscape:window-height="1017"
     id="namedview7"
     showgrid="true"
     inkscape:zoom="32"
     inkscape:cx="4.4139422"
     inkscape:cy="7.2599054"
     inkscape:window-x="0"
     inkscape:window-y="30"
     inkscape:window-maximized="1"
     inkscape:current-layer="svg5"
     units="px"
     showguides="true"
     inkscape:guide-bbox="true"
     inkscape:measure-start="4.75693,5.79008"
     inkscape:measure-end="4,5.21492">
    <inkscape:grid
       type="xygrid"
       id="grid816" />
    <sodipodi:guide
       position="8.4323011,6.75"
       orientation="0,1"
       id="guide1089"
       inkscape:locked="false" />
    <sodipodi:guide
       position="3,6.5925583"
       orientation="1,0"
       id="guide1091"
       inkscape:locked="false" />
    <sodipodi:guide
       position="9.75,5.25"
       orientation="0,1"
       id="guide1093"
       inkscape:locked="false" />
    <sodipodi:guide
       position="9.75,5.25"
       orientation="1,0"
       id="guide1095"
       inkscape:locked="false" />
    <sodipodi:guide
       position="8.4323011,7.5"
       orientation="1,0"
       id="guide1097"
       inkscape:locked="false" />
    <sodipodi:guide
       position="3.5676991,4.3425583"
       orientation="1,0"
       id="guide1099"
       inkscape:locked="false" />
    <sodipodi:guide
       position="3.5676991,4.3425583"
       orientation="0,1"
       id="guide1101"
       inkscape:locked="false" />
    <sodipodi:guide
       position="8.4323011,7.5"
       orientation="0,1"
       id="guide1103"
       inkscape:locked="false" />
    <sodipodi:guide
       position="5.7631965,9.637092"
       orientation="1,0"
       id="guide1107"
       inkscape:locked="false" />
  </sodipodi:namedview>
  <path
     style="fill:#1a1a1a;fill-opacity:1;stroke-width:1"
     d="M 8.03125 2.03125 A 6 6 0 0 0 2.03125 8.03125 A 6 6 0 0 0 8.03125 14.03125 A 6 6 0 0 0 14.03125 8.03125 A 6 6 0 0 0 8.03125 2.03125 z M 7.6777344 3.1347656 C 9.616015 3.0796304 12 4.5415242 13 7.2089844 L 10 7.2089844 L 11.242188 6 C 8.5667113 2.3314556 4.7679813 4.4198265 4 7.2089844 L 3 7.2089844 C 3.4288413 4.8801005 5.8636244 3.1863687 7.6777344 3.1347656 z M 3 9 L 6 9 L 4.7578125 10.208984 C 7.4332882 13.877529 11.232019 11.789158 12 9 L 13 9 C 12.571159 11.328884 10.136376 13.024569 8.3222656 13.076172 C 6.383985 13.131307 4 11.66746 3 9 z "
     transform="scale(0.75)"
     id="path1081" />
</svg>

<svg width="16" height="16" version="1.1" viewBox="0 0 12 12" xmlns="http://www.w3.org/2000/svg">
<path transform="scale(.75)" d="m8.0312 2.0312a6 6 0 0 0-6 6 6 6 0 0 0 6 6 6 6 0 0 0 6-6 6 6 0 0 0-6-6zm-0.35352 1.1035c1.9383-0.055135 4.3223 1.4068 5.3223 4.0742h-3l1.2422-1.209c-2.6755-3.6685-6.4742-1.5802-7.2422 1.209h-1c0.42884-2.3289 2.8636-4.0226 4.6777-4.0742zm-4.6777 5.8652h3l-1.2422 1.209c2.6755 3.6685 6.4742 1.5802 7.2422-1.209h1c-0.42884 2.3289-2.8636 4.0246-4.6777 4.0762-1.9383 0.055135-4.3223-1.4087-5.3223-4.0762z" fill="#1a1a1a"/>
</svg>
